X:1
T:Title
%%score { 1 | ( 2 3 ) }
L:1/8
M:3/4
K:G
V:1 treble nm="Grand Piano"
V:2 bass 
V:3 bass 
V:1
 z2 z2[Q:1/4=100] [DB]>[CA] | [B,G]3 [CA] [EG]>E | D2 [B,G]2 G>B | d3 G [FA]>[GB] |[M:2/4] [FA]4 | %5
[M:1/4] B>A |[M:3/4] G3 [^DA] [EG]>[CE] | [CE]2 [B,D]2 [EG]>[EB] | [Fd]3 G [FA]>[FB] | %9
[M:2/4] [B,G]4 |[M:1/4] B>c |[M:3/4] d3 e d>B | d4 [DG]A | B/c/[Gd] B2 A2 |[M:2/4] G4 |] %15
V:2
 z2 z2 [G,,G,]>[G,,G,] | [G,,G,]3 [G,,G,] [C,G,]>[E,G,C] | %2
 [G,B,]2 [G,,G,]2 [G,B,]>[K:treble][G,B,G] | [G,B,G]3[K:bass] [E,B,] [D,D]>[D,D] |[M:2/4] [D,D]4 | %5
[M:1/4] [G,D]>[D,F,C] |[M:3/4] [E,G,B,]3 [B,,F,] [C,E,]>[C,G,] | [G,,G,]2 [G,,G,]2 [E,B,]>[E,G,] | %8
 [D,A,]3 [D,B,] [D,C]>[D,D] |[M:2/4] [G,,G,]4 |[M:1/4][K:treble] [G,G]>[G,G] | %11
[M:3/4] [G,B,G]3 [G,CG] [G,B,G]>[G,G] | [G,B,G]4[K:bass] [B,,G,][D,F,D] | .[G,D]2 z2 z2 | %14
[M:2/4] [G,,G,]4 |] %15
V:3
 x6 | x6 | x11/2[K:treble] x/ | x3[K:bass] x3 |[M:2/4] x4 |[M:1/4] x2 |[M:3/4] x6 | x6 | x6 | %9
[M:2/4] x4 |[M:1/4][K:treble] x2 |[M:3/4] x6 | x4[K:bass] x2 | z/ A,/[B,,B,] [D,G,D]2 [D,F,C]2 | %14
[M:2/4] x4 |] %15

